Newaita/actions/32/dialog-text-and-font.svg

<svg height="32" viewBox="0 0 32 32" width="32" xmlns="http://www.w3.org/2000/svg"><g fill="#424242"><path d="m6.613281 2.894531h18.523438v2.648438h-18.523438zm0 0"/><path d="m6.613281 2.894531c.734375 0 1.324219.59375 1.324219 1.324219v2.648438c0 .730468-.589844 1.320312-1.324219 1.320312-.730469 0-1.320312-.589844-1.320312-1.320312v-2.648438c0-.730469.589843-1.324219 1.320312-1.324219zm0 0"/><path d="m25.136719 2.894531c.730469 0 1.324219.59375 1.324219 1.324219v2.648438c0 .730468-.59375 1.320312-1.324219 1.320312s-1.320313-.589844-1.320313-1.320312v-2.648438c0-.730469.589844-1.324219 1.320313-1.324219zm0 0"/><path d="m15.875 2.894531c.730469 0 1.324219.59375 1.324219 1.324219v23.816406c0 .730469-.59375 1.320313-1.324219 1.320313s-1.320312-.589844-1.320312-1.320313v-23.816406c0-.730469.589843-1.324219 1.320312-1.324219zm0 0"/><path d="m13.214844 26.710938h5.308594c.730468 0 1.320312.59375 1.320312 1.324218 0 .730469-.589844 1.320313-1.320312 1.320313h-5.308594c-.730469 0-1.324219-.589844-1.324219-1.320313 0-.730468.59375-1.324218 1.324219-1.324218zm0 0"/></g></svg>

<svg xmlns="http://www.w3.org/2000/svg" xmlns:xlink="http://www.w3.org/1999/xlink" width="32px" height="32px" viewBox="0 0 32 32" version="1.1">
<g id="surface1">
     <defs>
  <style id="current-color-scheme" type="text/css">
   .ColorScheme-Text { color:#424242; } .ColorScheme-Highlight { color:#eeeeee; }
  </style>
 </defs>
<path style="fill:currentColor" class="ColorScheme-Text" d="M 6.613281 2.894531 L 25.136719 2.894531 L 25.136719 5.542969 L 6.613281 5.542969 Z M 6.613281 2.894531 "/>
     <defs>
  <style id="current-color-scheme" type="text/css">
   .ColorScheme-Text { color:#424242; } .ColorScheme-Highlight { color:#eeeeee; }
  </style>
 </defs>
<path style="fill:currentColor" class="ColorScheme-Text" d="M 6.613281 2.894531 C 7.347656 2.894531 7.9375 3.488281 7.9375 4.21875 L 7.9375 6.867188 C 7.9375 7.597656 7.347656 8.1875 6.613281 8.1875 C 5.882812 8.1875 5.292969 7.597656 5.292969 6.867188 L 5.292969 4.21875 C 5.292969 3.488281 5.882812 2.894531 6.613281 2.894531 Z M 6.613281 2.894531 "/>
     <defs>
  <style id="current-color-scheme" type="text/css">
   .ColorScheme-Text { color:#424242; } .ColorScheme-Highlight { color:#eeeeee; }
  </style>
 </defs>
<path style="fill:currentColor" class="ColorScheme-Text" d="M 25.136719 2.894531 C 25.867188 2.894531 26.460938 3.488281 26.460938 4.21875 L 26.460938 6.867188 C 26.460938 7.597656 25.867188 8.1875 25.136719 8.1875 C 24.40625 8.1875 23.816406 7.597656 23.816406 6.867188 L 23.816406 4.21875 C 23.816406 3.488281 24.40625 2.894531 25.136719 2.894531 Z M 25.136719 2.894531 "/>
     <defs>
  <style id="current-color-scheme" type="text/css">
   .ColorScheme-Text { color:#424242; } .ColorScheme-Highlight { color:#eeeeee; }
  </style>
 </defs>
<path style="fill:currentColor" class="ColorScheme-Text" d="M 15.875 2.894531 C 16.605469 2.894531 17.199219 3.488281 17.199219 4.21875 L 17.199219 28.035156 C 17.199219 28.765625 16.605469 29.355469 15.875 29.355469 C 15.144531 29.355469 14.554688 28.765625 14.554688 28.035156 L 14.554688 4.21875 C 14.554688 3.488281 15.144531 2.894531 15.875 2.894531 Z M 15.875 2.894531 "/>
     <defs>
  <style id="current-color-scheme" type="text/css">
   .ColorScheme-Text { color:#424242; } .ColorScheme-Highlight { color:#eeeeee; }
  </style>
 </defs>
<path style="fill:currentColor" class="ColorScheme-Text" d="M 13.214844 26.710938 L 18.523438 26.710938 C 19.253906 26.710938 19.84375 27.304688 19.84375 28.035156 C 19.84375 28.765625 19.253906 29.355469 18.523438 29.355469 L 13.214844 29.355469 C 12.484375 29.355469 11.890625 28.765625 11.890625 28.035156 C 11.890625 27.304688 12.484375 26.710938 13.214844 26.710938 Z M 13.214844 26.710938 "/>
</g>
</svg>
